X:13018
T:Morning Star March, The
R:March
C:Trad. Morris
O:England
Z:Paul Hardy's Session Tunebook 2022 (see www.paulhardy.net). Creative Commons cc by-nc-sa licenced.
M:4/4
L:1/8
Q:1/4=110
K:G
dc|"G"BdBG "C"E2FG|"D"ABAF "D7"D2dc|"G"BdBG "C"EFGE|"D7"D2 F2 "G"G2:|
zc|"G"B2 d2 "Em"g2 e2|"G"dcBA G3c|"G"B2 d2 "Em"g2 e2|"D"f2d2 "D7"d3c|
"G"B2 d2 "Em"g2 e2|"D7"dcBA GFGA|"G"BdBG "Em"EFGE|"D7"D2 F2 "G"G2|]

